Yaru++/apps/scalable/com.github.arshubham.gitignore.svg

<svg height="256" width="256" xmlns="http://www.w3.org/2000/svg" xmlns:xlink="http://www.w3.org/1999/xlink">
  <filter id="filter983" color-interpolation-filters="sRGB" height="1.024" width="1.024" x="-.01" y="-.01">
    <feGaussianBlur stdDeviation="1.561"/>
  </filter>
  <filter id="filter997" color-interpolation-filters="sRGB" height="1.048" width="1.048" x="-.02" y="-.02">
    <feGaussianBlur stdDeviation="3.121"/>
  </filter>
  <g transform="matrix(.52082744 .52082744 -.52082744 .52082744 127.08596 -2.461515)">
    <path d="m14.690809 13.361466c-3.721083 3.813215-5.7988046 8.933397-5.7869221 14.261311l-.0000102 190.028423c-.012214 5.4128 2.1398533 10.60587 5.9771483 14.42332l-.0031.003 3.606724 3.60673c3.818909 3.83695 9.013325 5.98769 14.426843 5.97361l190.028078.00001c11.27743.0256 20.4261-9.12303 20.40043-20.40046l.00004-190.028425c.0122-5.412798-2.13982-10.605845-5.97715-14.423327l.004-.004-3.60673-3.60673-.004.004c-3.816-3.8386402-9.0105-5.9893144-14.42327-5.9771012l-190.02851.0000234c-5.500586-.012316-10.771968 2.2022471-14.613535 6.1391438z" filter="url(#filter997)" opacity=".1"/>
    <path d="m14.690809 13.361466c-3.721083 3.813215-5.7988046 8.933397-5.7869221 14.261311l-.0000102 190.028423c-.012214 5.4128 2.1398533 10.60587 5.9771483 14.42332l-.0031.003 3.606724 3.60673c3.818909 3.83695 9.013325 5.98769 14.426843 5.97361l190.028078.00001c11.27743.0256 20.4261-9.12303 20.40043-20.40046l.00004-190.028425c.0122-5.412798-2.13982-10.605845-5.97715-14.423327l.004-.004-3.60673-3.60673-.004.004c-3.816-3.8386402-9.0105-5.9893144-14.42327-5.9771012l-190.02851.0000234c-5.500586-.012316-10.771968 2.2022471-14.613535 6.1391438z" filter="url(#filter983)" opacity=".1"/>
    <path d="m14.690809 13.361466c-3.721083 3.813215-5.7988046 8.933397-5.7869221 14.261311l-.0000102 190.028423c-.012214 5.4128 2.1398533 10.60587 5.9771483 14.42332l-.0031.003 3.606724 3.60673c3.818909 3.83695 9.013325 5.98769 14.426843 5.97361l190.028078.00001c11.27743.0256 20.4261-9.12303 20.40043-20.40046l.00004-190.028425c.0122-5.412798-2.13982-10.605845-5.97715-14.423327l.004-.004-3.60673-3.60673-.004.004c-3.816-3.8386402-9.0105-5.9893144-14.42327-5.9771012l-190.02851.0000234c-5.500586-.012316-10.771968 2.2022471-14.613535 6.1391438z" opacity=".1"/>
    <path d="m16.645717 15.310195c-3.6558 3.746316-5.69707 8.77667-5.685396 14.011111l-.00001 186.694584c-.012 5.31783 2.102312 10.4198 5.872285 14.17027l-.003.003 3.543448 3.54345c3.75191 3.76964 8.855196 5.88265 14.173739 5.86881l186.694247.00001c11.07958.0252 20.06775-8.96297 20.04253-20.04255l.00004-186.694584c.012-5.317836-2.10228-10.419777-5.87229-14.170285l.004-.0039-3.54346-3.543454-.004.0039c-3.7491-3.771344-8.85246-5.8842867-14.17027-5.8722877l-186.694671.000023c-5.404084-.0121-10.582985 2.1636107-14.357156 6.0314387z" fill="#b717db"/>
    <path d="m18.456605 231.80877 1.920022 1.92002c3.751915 3.76964 8.854756 5.88078 14.173284 5.86695l186.693989.002c11.0796.0252 20.06919-8.9644 20.04397-20.04397l-.00187-186.694123c.012-5.317829-2.10068-10.419036-5.87069-14.169536l.004-.0038-1.92002-1.920022-.004.0038c3.77001 3.750501 5.88269 8.851707 5.87069 14.169536l.002 186.693995c.0252 11.07957-8.96438 20.06917-20.04397 20.04397l-186.693991-.002c-5.318527.0138-10.421369-2.09731-14.173284-5.86695z" fill="#030303" opacity=".2"/>
    <path d="m16.645753 15.309731c-3.655794 3.746324-5.698616 8.7776-5.686936 14.012046l.002 186.694063c-.012 5.31783 2.100722 10.41907 5.870706 14.16953l-.004.004 1.920022 1.92002.004-.004c-3.769974-3.75047-5.882706-8.85171-5.870706-14.16953l-.002-186.694071c-.0117-5.234446 2.031142-10.265722 5.686936-14.012036 3.774184-3.867844 8.95297-6.044056 14.357056-6.031956l186.694039.002c5.31781-.012 10.42043 2.099332 14.16953 5.870696l.004-.004-1.92002-1.920032-.004.004c-3.7491-3.771354-8.85172-5.882696-14.16953-5.870696l-186.694041-.002c-5.404086-.0121-10.582872 2.164112-14.357056 6.031946z" fill="#fff" opacity=".3"/>
  </g>
  <path d="m85.105469 50.935547-10.216797 10.216797v.298828l1.121094-1.138672 25.396484 25.820312c-.65111 1.584957-1.06395 3.247194-1.23633 4.929688-.172369 1.682494-.10415 3.386892.20313 5.052734.30728 1.665843.85473 3.293123 1.64257 4.828126.78786 1.535 1.81661 2.97761 3.08594 4.26758.83079.84707 1.72389 1.58494 2.66602 2.21875s1.93338 1.16188 2.95703 1.58789v62.52148c-1.02365.42601-2.01626.95679-2.95899 1.5918-.94271.63501-1.8356 1.37362-2.66406 2.21484-.83797.85179-1.57269 1.77082-2.20117 2.73828-.62848.96745-1.15132 1.98504-1.57031 3.03516s-.73387 2.13265-.94336 3.23242c-.2095 1.09978-.31445 2.21558-.31445 3.33203 0 1.11644.10495 2.23389.31445 3.33399.20949 1.1001.52437 2.18361.94336 3.23437.41899 1.05077.94183 2.06868 1.57031 3.03711.62848.96844 1.3632 1.88714 2.20117 2.74024.83737.85151 1.73998 1.59574 2.69141 2.23437.95142.63864 1.95146 1.1719 2.98437 1.59766 1.03292.42576 2.09785.74415 3.17969.95703 1.08185.21288 2.18109.32031 3.2793.32031 1.0982 0 2.19534-.10743 3.27734-.32031s2.14842-.53127 3.18164-.95703c1.03323-.42576 2.0325-.95902 2.98438-1.59766.95188-.63863 1.85538-1.38286 2.69336-2.23437.83797-.8531 1.57074-1.7718 2.19922-2.74024.62847-.96843 1.15328-1.98634 1.57226-3.03711.41899-1.05076.73387-2.13427.94336-3.23437s.3125-2.21755.3125-3.33399c0-1.11645-.10301-2.23225-.3125-3.33203-.20949-1.09977-.52437-2.1823-.94336-3.23242-.41898-1.05012-.94379-2.06771-1.57226-3.03516-.62848-.96746-1.36125-1.88649-2.19922-2.73828-1.36175-1.38034-2.9041-2.47606-4.53711-3.29882v-61.94727l23.1582 23.54101c-.63918 1.57894-1.03931 3.23373-1.20312 4.90821-.16382 1.67447-.0906 3.36845.2207 5.02539.31125 1.65694.86046 3.27639 1.64648 4.80273s1.80787 2.95951 3.06836 4.24219c.83895.85238 1.74287 1.599 2.69532 2.23828.95242.63929 1.9548 1.17147 2.98828 1.59766s2.09955.74589 3.18164.95898c1.08209.2131 2.17908.32032 3.27734.32032 1.09827 0 2.1973-.10722 3.2793-.32032 1.082-.21309 2.14834-.53279 3.18164-.95898s2.03417-.95837 2.98633-1.59766c.95216-.63928 1.85477-1.3859 2.69336-2.23828.83797-.85235 1.57073-1.77039 2.19921-2.73828s1.15328-1.98476 1.57227-3.03516c.41899-1.05039.73191-2.13451.94141-3.23437.20949-1.09987.31445-2.21574.31445-3.33203 0-1.1163-.10496-2.23235-.31445-3.33203-.2095-1.09969-.52242-2.18238-.94141-3.23243-.41899-1.05004-.94379-2.06779-1.57227-3.03515-.62848-.96737-1.36124-1.88469-2.19921-2.73633-1.19987-1.22145-2.53292-2.22214-3.95118-3.00391s-2.92144-1.34555-4.46289-1.68945c-1.54144-.3439-3.12004-.4691-4.68945-.37695-1.56941.0921-3.13067.40135-4.63281.92773l-24.83008-25.23828c.51826-1.527081.82357-3.111816.91406-4.707031.0905-1.595216-.0326-3.200783-.37109-4.767578-.33845-1.566794-.89159-3.095294-1.66016-4.53711-.76856-1.441816-1.75327-2.797296-2.95312-4.017578-1.19267-1.212716-2.51574-2.208922-3.92383-2.988281s-2.90103-1.342299-4.43164-1.689453c-1.53062-.347154-3.09798-.478431-4.6582-.394531-1.56024.083899-3.11242.382682-4.60938.896484l-25.007812-25.421875z" fill="#fff"/>
</svg>

<?xml version="1.0" encoding="UTF-8" standalone="no"?>
<svg
   xmlns:dc="http://purl.org/dc/elements/1.1/"
   xmlns:cc="http://creativecommons.org/ns#"
   xmlns:rdf="http://www.w3.org/1999/02/22-rdf-syntax-ns#"
   xmlns:svg="http://www.w3.org/2000/svg"
   xmlns="http://www.w3.org/2000/svg"
   xmlns:xlink="http://www.w3.org/1999/xlink"
   xmlns:sodipodi="http://sodipodi.sourceforge.net/DTD/sodipodi-0.dtd"
   xmlns:inkscape="http://www.inkscape.org/namespaces/inkscape"
   width="256"
   height="256"
   version="1.0"
   id="svg48"
   sodipodi:docname="git.svg"
   inkscape:version="0.92.4 (5da689c313, 2019-01-14)">
  <metadata
     id="metadata52">
    <rdf:RDF>
      <cc:Work
         rdf:about="">
        <dc:format>image/svg+xml</dc:format>
        <dc:type
           rdf:resource="http://purl.org/dc/dcmitype/StillImage" />
        <dc:title></dc:title>
      </cc:Work>
    </rdf:RDF>
  </metadata>
  <sodipodi:namedview
     pagecolor="#ffffff"
     bordercolor="#666666"
     borderopacity="1"
     objecttolerance="10"
     gridtolerance="10"
     guidetolerance="10"
     inkscape:pageopacity="0"
     inkscape:pageshadow="2"
     inkscape:window-width="854"
     inkscape:window-height="480"
     id="namedview50"
     showgrid="false"
     inkscape:zoom="0.921875"
     inkscape:cx="128"
     inkscape:cy="128"
     inkscape:window-x="303"
     inkscape:window-y="97"
     inkscape:window-maximized="0"
     inkscape:current-layer="g44" />
  <defs
     id="defs30">
    <linearGradient
       id="a">
      <stop
         id="stop2"
         offset="0"
         stop-color="#68676b" />
      <stop
         id="stop4"
         offset=".8"
         stop-color="#424048" />
      <stop
         id="stop6"
         offset="1"
         stop-color="#241f31" />
    </linearGradient>
    <radialGradient
       id="d"
       cx="279.422"
       cy="446.483"
       r="224"
       fx="279.422"
       fy="446.483"
       gradientTransform="matrix(1.34416,6e-4,-6.2e-4,1.38763,-121.22,-718.103)"
       gradientUnits="userSpaceOnUse"
       xlink:href="#a" />
    <linearGradient
       id="e"
       x1="43.844"
       x2="-60"
       y1="234"
       y2="234"
       gradientTransform="matrix(1.0015,0,0,0.99993,72.09,56.015)"
       gradientUnits="userSpaceOnUse"
       xlink:href="#b" />
    <linearGradient
       id="b">
      <stop
         id="stop11"
         offset="0"
         stop-color="#d5d3cf" />
      <stop
         id="stop13"
         offset=".038"
         stop-color="#e3e2df" />
      <stop
         id="stop15"
         offset=".077"
         stop-color="#c0bfbc" />
      <stop
         id="stop17"
         offset=".923"
         stop-color="#c0bfbc" />
      <stop
         id="stop19"
         offset=".962"
         stop-color="#e3e2df" />
      <stop
         id="stop21"
         offset="1"
         stop-color="#d5d3cf" />
    </linearGradient>
    <linearGradient
       id="linearGradient1007"
       x1="160.305"
       x2="161.33"
       y1="240.139"
       y2="135.579"
       gradientTransform="matrix(0.54625232,0,0,0.54625232,-6.0941965,-68.413544)"
       gradientUnits="userSpaceOnUse"
       xlink:href="#linearGradient1018" />
    <linearGradient
       id="linearGradient1018">
      <stop
         id="stop2-3"
         offset="0"
         style="stop-color:#37a6e6" />
      <stop
         id="stop4-6"
         offset="1"
         style="stop-color:#1a7fd4" />
    </linearGradient>
    <clipPath
       id="clipPath1082-3"
       clipPathUnits="userSpaceOnUse">
      <path
         d="M 361.9375,-212 C 507.2348,-212 528,-191.28677 528,-46.125 V 70.125 C 528,215.28618 507.2348,236 361.9375,236 H 214.0625 C 68.7652,236 48,215.28618 48,70.125 V -46.125 C 48,-191.28677 68.7652,-212 214.0625,-212 Z"
         style="fill:#8c59d9"
         id="path19" />
    </clipPath>
    <linearGradient
       id="linearGradient3992"
       x1="321"
       x2="321"
       y1="189"
       y2="155"
       gradientTransform="matrix(1.8327625,0,0,2.0026265,-524.70604,-347.58757)"
       gradientUnits="userSpaceOnUse"
       xlink:href="#linearGradient3968" />
    <linearGradient
       id="linearGradient3968">
      <stop
         id="stop3970"
         offset="0"
         style="stop-color:#ed6308" />
      <stop
         id="stop3972"
         offset="1"
         style="stop-color:#f09e17" />
    </linearGradient>
    <filter
       style="color-interpolation-filters:sRGB"
       id="filter983"
       width="1.024"
       height="1.024"
       x="-.01"
       y="-.01">
      <feGaussianBlur
         id="feGaussianBlur985"
         stdDeviation="1.561" />
    </filter>
    <filter
       style="color-interpolation-filters:sRGB"
       id="filter997"
       width="1.048"
       height="1.048"
       x="-.02"
       y="-.02">
      <feGaussianBlur
         id="feGaussianBlur999"
         stdDeviation="3.121" />
    </filter>
  </defs>
  <g
     transform="matrix(0.52082744,0.52082744,-0.52082744,0.52082744,127.08596,-2.461515)"
     id="g44">
    <path
       d="M 14.690809,13.361466 C 10.969726,17.174681 8.8920044,22.294863 8.9038869,27.622777 L 8.9038767,217.6512 c -0.012214,5.4128 2.1398533,10.60587 5.9771483,14.42332 l -0.0031,0.003 3.606724,3.60673 c 3.818909,3.83695 9.013325,5.98769 14.426843,5.97361 l 190.028078,1e-5 c 11.27743,0.0256 20.4261,-9.12303 20.40043,-20.40046 l 4e-5,-190.028425 c 0.0122,-5.412798 -2.13982,-10.605845 -5.97715,-14.423327 l 0.004,-0.004 -3.60673,-3.60673 -0.004,0.004 c -3.816,-3.8386402 -9.0105,-5.9893144 -14.42327,-5.9771012 L 29.30438,7.2218502 C 23.803794,7.2095342 18.532412,9.4240973 14.690845,13.360994 Z"
       style="opacity:0.1;filter:url(#filter997)"
       id="path32" />
    <path
       style="opacity:0.1;filter:url(#filter983)"
       d="M 14.690809,13.361466 C 10.969726,17.174681 8.8920044,22.294863 8.9038869,27.622777 L 8.9038767,217.6512 c -0.012214,5.4128 2.1398533,10.60587 5.9771483,14.42332 l -0.0031,0.003 3.606724,3.60673 c 3.818909,3.83695 9.013325,5.98769 14.426843,5.97361 l 190.028078,1e-5 c 11.27743,0.0256 20.4261,-9.12303 20.40043,-20.40046 l 4e-5,-190.028425 c 0.0122,-5.412798 -2.13982,-10.605845 -5.97715,-14.423327 l 0.004,-0.004 -3.60673,-3.60673 -0.004,0.004 c -3.816,-3.8386402 -9.0105,-5.9893144 -14.42327,-5.9771012 L 29.30438,7.2218502 C 23.803794,7.2095342 18.532412,9.4240973 14.690845,13.360994 Z"
       id="path34" />
    <path
       d="M 14.690809,13.361466 C 10.969726,17.174681 8.8920044,22.294863 8.9038869,27.622777 L 8.9038767,217.6512 c -0.012214,5.4128 2.1398533,10.60587 5.9771483,14.42332 l -0.0031,0.003 3.606724,3.60673 c 3.818909,3.83695 9.013325,5.98769 14.426843,5.97361 l 190.028078,1e-5 c 11.27743,0.0256 20.4261,-9.12303 20.40043,-20.40046 l 4e-5,-190.028425 c 0.0122,-5.412798 -2.13982,-10.605845 -5.97715,-14.423327 l 0.004,-0.004 -3.60673,-3.60673 -0.004,0.004 c -3.816,-3.8386402 -9.0105,-5.9893144 -14.42327,-5.9771012 L 29.30438,7.2218502 C 23.803794,7.2095342 18.532412,9.4240973 14.690845,13.360994 Z"
       style="opacity:0.1"
       id="path36" />
    <path
       style="fill:#b717db;fill-opacity:1"
       d="m 16.645717,15.310195 c -3.6558,3.746316 -5.69707,8.77667 -5.685396,14.011111 l -10e-6,186.694584 c -0.012,5.31783 2.102312,10.4198 5.872285,14.17027 l -0.003,0.003 3.543448,3.54345 c 3.75191,3.76964 8.855196,5.88265 14.173739,5.86881 l 186.694247,1e-5 c 11.07958,0.0252 20.06775,-8.96297 20.04253,-20.04255 l 4e-5,-186.694584 c 0.012,-5.317836 -2.10228,-10.419777 -5.87229,-14.170285 l 0.004,-0.0039 -3.54346,-3.543454 -0.004,0.0039 c -3.7491,-3.771344 -8.85246,-5.8842867 -14.17027,-5.8722877 l -186.694671,2.3e-5 c -5.404084,-0.0121 -10.582985,2.1636107 -14.357156,6.0314387 z"
       id="path38" />
    <path
       style="opacity:0.2;fill:#030303"
       d="m 18.456605,231.80877 1.920022,1.92002 c 3.751915,3.76964 8.854756,5.88078 14.173284,5.86695 l 186.693989,0.002 c 11.0796,0.0252 20.06919,-8.9644 20.04397,-20.04397 L 241.286,32.859647 c 0.012,-5.317829 -2.10068,-10.419036 -5.87069,-14.169536 l 0.004,-0.0038 -1.92002,-1.920022 -0.004,0.0038 c 3.77001,3.750501 5.88269,8.851707 5.87069,14.169536 l 0.002,186.693995 c 0.0252,11.07957 -8.96438,20.06917 -20.04397,20.04397 l -186.693991,-0.002 c -5.318527,0.0138 -10.421369,-2.09731 -14.173284,-5.86695 z"
       id="path40" />
    <path
       style="opacity:0.3;fill:#ffffff"
       d="m 16.645753,15.309731 c -3.655794,3.746324 -5.698616,8.7776 -5.686936,14.012046 l 0.002,186.694063 c -0.012,5.31783 2.100722,10.41907 5.870706,14.16953 l -0.004,0.004 1.920022,1.92002 0.004,-0.004 c -3.769974,-3.75047 -5.882706,-8.85171 -5.870706,-14.16953 l -0.002,-186.694071 c -0.0117,-5.234446 2.031142,-10.265722 5.686936,-14.012036 3.774184,-3.867844 8.95297,-6.044056 14.357056,-6.031956 l 186.694039,0.002 c 5.31781,-0.012 10.42043,2.099332 14.16953,5.870696 l 0.004,-0.004 -1.92002,-1.920032 -0.004,0.004 c -3.7491,-3.771354 -8.85172,-5.882696 -14.16953,-5.870696 l -186.694041,-0.002 c -5.404086,-0.0121 -10.582872,2.164112 -14.357056,6.031946 z"
       id="path42" />
  </g>
  <path
     style="fill:#ffffff"
     d="M 85.105469 50.935547 L 74.888672 61.152344 L 74.888672 61.451172 L 76.009766 60.3125 L 101.40625 86.132812 C 100.75514 87.717769 100.3423 89.380006 100.16992 91.0625 C 99.997551 92.744994 100.06577 94.449392 100.37305 96.115234 C 100.68033 97.781077 101.22778 99.408357 102.01562 100.94336 C 102.80348 102.47836 103.83223 103.92097 105.10156 105.21094 C 105.93235 106.05801 106.82545 106.79588 107.76758 107.42969 C 108.70971 108.0635 109.70096 108.59157 110.72461 109.01758 L 110.72461 171.53906 C 109.70096 171.96507 108.70835 172.49585 107.76562 173.13086 C 106.82291 173.76587 105.93002 174.50448 105.10156 175.3457 C 104.26359 176.19749 103.52887 177.11652 102.90039 178.08398 C 102.27191 179.05143 101.74907 180.06902 101.33008 181.11914 C 100.91109 182.16926 100.59621 183.25179 100.38672 184.35156 C 100.17722 185.45134 100.07227 186.56714 100.07227 187.68359 C 100.07227 188.80003 100.17722 189.91748 100.38672 191.01758 C 100.59621 192.11768 100.91109 193.20119 101.33008 194.25195 C 101.74907 195.30272 102.27191 196.32063 102.90039 197.28906 C 103.52887 198.2575 104.26359 199.1762 105.10156 200.0293 C 105.93893 200.88081 106.84154 201.62504 107.79297 202.26367 C 108.74439 202.90231 109.74443 203.43557 110.77734 203.86133 C 111.81026 204.28709 112.87519 204.60548 113.95703 204.81836 C 115.03888 205.03124 116.13812 205.13867 117.23633 205.13867 C 118.33453 205.13867 119.43167 205.03124 120.51367 204.81836 C 121.59567 204.60548 122.66209 204.28709 123.69531 203.86133 C 124.72854 203.43557 125.72781 202.90231 126.67969 202.26367 C 127.63157 201.62504 128.53507 200.88081 129.37305 200.0293 C 130.21102 199.1762 130.94379 198.2575 131.57227 197.28906 C 132.20074 196.32063 132.72555 195.30272 133.14453 194.25195 C 133.56352 193.20119 133.8784 192.11768 134.08789 191.01758 C 134.29738 189.91748 134.40039 188.80003 134.40039 187.68359 C 134.40039 186.56714 134.29738 185.45134 134.08789 184.35156 C 133.8784 183.25179 133.56352 182.16926 133.14453 181.11914 C 132.72555 180.06902 132.20074 179.05143 131.57227 178.08398 C 130.94379 177.11652 130.21102 176.19749 129.37305 175.3457 C 128.0113 173.96536 126.46895 172.86964 124.83594 172.04688 L 124.83594 110.09961 L 147.99414 133.64062 C 147.35496 135.21956 146.95483 136.87435 146.79102 138.54883 C 146.6272 140.2233 146.70042 141.91728 147.01172 143.57422 C 147.32297 145.23116 147.87218 146.85061 148.6582 148.37695 C 149.44422 149.90329 150.46607 151.33646 151.72656 152.61914 C 152.56551 153.47152 153.46943 154.21814 154.42188 154.85742 C 155.3743 155.49671 156.37668 156.02889 157.41016 156.45508 C 158.44364 156.88127 159.50971 157.20097 160.5918 157.41406 C 161.67389 157.62716 162.77088 157.73438 163.86914 157.73438 C 164.96741 157.73438 166.06644 157.62716 167.14844 157.41406 C 168.23044 157.20097 169.29678 156.88127 170.33008 156.45508 C 171.36338 156.02889 172.36425 155.49671 173.31641 154.85742 C 174.26857 154.21814 175.17118 153.47152 176.00977 152.61914 C 176.84774 151.76679 177.5805 150.84875 178.20898 149.88086 C 178.83746 148.91297 179.36226 147.8961 179.78125 146.8457 C 180.20024 145.79531 180.51316 144.71119 180.72266 143.61133 C 180.93215 142.51146 181.03711 141.39559 181.03711 140.2793 C 181.03711 139.163 180.93215 138.04695 180.72266 136.94727 C 180.51316 135.84758 180.20024 134.76489 179.78125 133.71484 C 179.36226 132.6648 178.83746 131.64705 178.20898 130.67969 C 177.5805 129.71232 176.84774 128.795 176.00977 127.94336 C 174.8099 126.72191 173.47685 125.72122 172.05859 124.93945 C 170.64033 124.15768 169.13715 123.5939 167.5957 123.25 C 166.05426 122.9061 164.47566 122.7809 162.90625 122.87305 C 161.33684 122.96515 159.77558 123.2744 158.27344 123.80078 L 133.44336 98.5625 C 133.96162 97.035419 134.26693 95.450684 134.35742 93.855469 C 134.44792 92.260253 134.32482 90.654686 133.98633 89.087891 C 133.64788 87.521097 133.09474 85.992597 132.32617 84.550781 C 131.55761 83.108965 130.5729 81.753485 129.37305 80.533203 C 128.18038 79.320487 126.85731 78.324281 125.44922 77.544922 C 124.04113 76.765563 122.54819 76.202623 121.01758 75.855469 C 119.48696 75.508315 117.9196 75.377038 116.35938 75.460938 C 114.79914 75.544837 113.24696 75.84362 111.75 76.357422 L 86.742188 50.935547 L 85.105469 50.935547 z"
     id="path46" />
</svg>
